X: 824
T: Polska efter Karl Petterson
T: (SvL Västmanland nr 164)
O: Västmanland, Ramnäs bruk
B: http://www.smus.se/earkiv/fmk/browselarge.php?lang=sw&katalogid=Vs+4&bildnr=00030
B: Jämför [[http://www.smus.se/earkiv/fmk/browselarge.php?lang=sw&katalogid=S%F6+1&bildnr=00094|SMUS - katalog Sö1 bild 94]]
N: Första reprisen uppvisar starka likheter med en visa som börjar "Till himmelen, dit längtar jag". Se [[http://www.smus.se/earkiv/fmk/browselarge.php?lang=sw&katalogid=S%F6+1&bildnr=00094|SMUS - katalog Sö bild 94]]. Jämför även med Einar Övergaards folkmusiksamling nr 362 som har fyra textverser och [[http://www.samlingarna.sormlandsspel.se/wp-content/uploads/2013/08/56_sormlandska_latar1.pdf|56 Sörmländska låtar]] (pdf) nr 23.
D: Esbjörn Hazelius & Johan Hedin - Om du ville människa heta, spår 6 (litet annorlunda version än denna uppteckning dock) - [[http://www.youtube.com/watch?v=WrDC79_9yGA|YouTube-klipp]]
Z: Nils L, 2008-12-15
S: efter Karl Petterson
R: Polska
M: 3/4
L: 1/16
K: Am
      e2 |: {ef}e2>c2 A4 c2>B2 | ^G2z2 A4>A4 | A2>c2 e4 g2>a2 |1 f4 e4>e4 :|2 f4 e4> |]
|: {ef}e4-  | e2>c2 c2>e2 g2>e2 | e2>d2 d2>c2 e2>e2 | e2>c2 c2>e2 g2>e2 | e2>d2 d2>c2 (3e3(f/g/ | e2)>c2 A2>c2 {cd}c2>B2 | ^G2z2 A6 :|
(:musicend:)

Text ur Einar Övergaards folkmusiksamling nr 362:

[@
Stor sak fast (om) verlden hatar mig
det kan så litet ränta sig
att ega verdens gunst och nåd
i verden finns mång falska råd

ty jag som fattig är och arm
jag måste ofta lida harm
En trogen vän att välja ut
han finns så sällan på vår jord

Liksom en vattenbubbla skär
så är det med vår lefnad här
den kan så hastig blåsas ut
så är det med vår lefnad slut

Till himmelen dit längtar jag
der jag får leva med behag
Der lifsens krona för mig står
den jag så länge väntat på
@]

[[http://ipaintedapictureofyou.blogspot.se/2007/03/till-himmelen-dit-lngtar-jag-dr-jag-fr.html|Här]] finns en annan variant av texten.
(:music:)
